src/_assets/sidebar/bounty.svg

<svg width="24" height="24" viewBox="0 0 24 24" fill="none" xmlns="http://www.w3.org/2000/svg">
<path fill-rule="evenodd" clip-rule="evenodd" d="M12 4.75581C7.723 4.75581 4.25581 8.223 4.25581 12.5C4.25581 16.777 7.723 20.2442 12 20.2442C16.277 20.2442 19.7442 16.777 19.7442 12.5C19.7442 8.223 16.277 4.75581 12 4.75581ZM3 12.5C3 7.52944 7.02944 3.5 12 3.5C16.9706 3.5 21 7.52944 21 12.5C21 17.4706 16.9706 21.5 12 21.5C7.02944 21.5 3 17.4706 3 12.5ZM12 6.84884C12.3468 6.84884 12.6279 7.12996 12.6279 7.47674V7.74192C13.9929 7.98633 15.1395 9.01186 15.1395 10.407C15.1395 10.7538 14.8584 11.0349 14.5116 11.0349C14.1648 11.0349 13.8837 10.7538 13.8837 10.407C13.8837 9.83896 13.4115 9.23772 12.6279 9.02347V11.928C13.9929 12.1724 15.1395 13.1979 15.1395 14.593C15.1395 15.9881 13.9929 17.0137 12.6279 17.2581V17.5233C12.6279 17.87 12.3468 18.1512 12 18.1512C11.6532 18.1512 11.3721 17.87 11.3721 17.5233V17.2581C10.0071 17.0137 8.86047 15.9881 8.86047 14.593C8.86047 14.2462 9.14159 13.9651 9.48837 13.9651C9.83516 13.9651 10.1163 14.2462 10.1163 14.593C10.1163 15.161 10.5885 15.7623 11.3721 15.9765V13.072C10.0071 12.8276 8.86047 11.8021 8.86047 10.407C8.86047 9.01186 10.0071 7.98633 11.3721 7.74192V7.47674C11.3721 7.12996 11.6532 6.84884 12 6.84884ZM11.3721 9.02347C10.5885 9.23772 10.1163 9.83896 10.1163 10.407C10.1163 10.975 10.5885 11.5762 11.3721 11.7905V9.02347ZM12.6279 13.2095V15.9765C13.4115 15.7623 13.8837 15.161 13.8837 14.593C13.8837 14.025 13.4115 13.4238 12.6279 13.2095Z" fill="#485F7D"/>
</svg>

<svg xmlns="http://www.w3.org/2000/svg" width="24" height="24" fill="none"><path fill="#485F7D" fill-rule="evenodd" d="M12 4.756a7.744 7.744 0 100 15.488 7.744 7.744 0 000-15.488M3 12.5a9 9 0 1118 0 9 9 0 01-18 0m9-5.651c.347 0 .628.281.628.628v.265c1.365.244 2.512 1.27 2.512 2.665a.628.628 0 11-1.256 0c0-.568-.473-1.17-1.256-1.384v2.905c1.365.244 2.512 1.27 2.512 2.665s-1.147 2.42-2.512 2.665v.265a.628.628 0 01-1.256 0v-.265c-1.365-.244-2.512-1.27-2.512-2.665a.628.628 0 111.256 0c0 .568.473 1.17 1.256 1.383v-2.904c-1.365-.244-2.512-1.27-2.512-2.665s1.147-2.42 2.512-2.665v-.265c0-.347.281-.628.628-.628m-.628 2.174c-.784.215-1.256.816-1.256 1.384s.473 1.17 1.256 1.383zm1.256 4.187v2.766c.784-.214 1.256-.815 1.256-1.383s-.473-1.17-1.256-1.383" clip-rule="evenodd"/></svg>
